X: 9182
T: Dallington Road
R: jig
M: 6/8
K: Ddorian
DEG A2 G|ABd c2 B|ABd cBA|GEC CDE|
DEG A2 G|ABd c2 B|ABd cBA|GEC D3:|
CDD D2 C|DEG A2 G|A2 c AGE|EDC A,G,A,|
CDD D2 C|DEG A2 G|ABc AGE|EDC D3|
CDD D2 C|DEG A2 G|A2 c AGE|EDC A,G,A,|
CDD D2 C|DEG A2 G|ABc dcA|GEC D3||

